X: 1
T: Chloe's Passion
M: 9/8
L: 1/8
R: slip jig
K: Bmin
|:Bef gaf gee | Bef gee fdd | Bef gaf gee | fdd agf gee :|
|:BBB gfe gaa | BBB gfe fdd | BBB gfe gaa | fdd agf gee :|
|:BBB GBB AAA | BBB GBe Beg | fde faf gee | fdd agf gee :| 
fge edB eee | fdd dBA BBB | fge edB ege | fdd agf gee |
fge edB eee | fdd dBA BBB | ggg fga gee | ABd fdA BBB ||
